X: 23348
T: Leitrim Clog Dance
R: hornpipe
M: 4/4
K: Gmajor
|:G G/B/ d c/B/|ce ce|G G/B/ d/c/|BA A2|
G G/B/ d c/B/|ce ce|G G/B/ d/c/|BA G2:|
|:gg g/f/ e|dd d/c/ B|A A/B/ c/B/c/d/|ed d2|
gg g/f/ e|dd d/c/ B|A A/B/ c/B/c/A/|BG G2:|

